file-rotate-right.svg

<svg fill="currentColor" viewBox="0 0 24 24"><path d="M5 20a2 2 0 0 1-2-2V9c0-1.1.9-2 2-2h4l4 4v7c0 1.11-.89 2-2 2zm6-8.17L8.17 9H8v3h3zm9-.83h3l-4 4-4-4h3c0-3.31-2.69-6-6-6l-1 .08V3.06L12 3c4.42 0 8 3.58 8 8"/></svg>

<svg  viewBox="0 0 24 24" fill="currentColor"><path  d="M5 20C3.9 20 3 19.11 3 18V9C3 7.9 3.9 7 5 7H9L13 11V18C13 19.11 12.11 20 11 20H5M11 11.83L8.17 9H8V12H11V11.83M20 11H23L19 15L15 11H18C18 7.69 15.31 5 12 5L11 5.08V3.06L12 3C16.42 3 20 6.58 20 11"/></svg>
